DSView/icons/demo.svg

<?xml version="1.0" encoding="UTF-8" standalone="no"?>
<!-- 由 Microsoft Visio, SVG Export 生成 demo.svg 页-1 -->

<svg
   xmlns:v="http://schemas.microsoft.com/visio/2003/SVGExtensions/"
   xmlns:dc="http://purl.org/dc/elements/1.1/"
   xmlns:cc="http://creativecommons.org/ns#"
   xmlns:rdf="http://www.w3.org/1999/02/22-rdf-syntax-ns#"
   xmlns:svg="http://www.w3.org/2000/svg"
   xmlns="http://www.w3.org/2000/svg"
   xmlns:sodipodi="http://sodipodi.sourceforge.net/DTD/sodipodi-0.dtd"
   xmlns:inkscape="http://www.inkscape.org/namespaces/inkscape"
   width="512"
   height="512"
   viewBox="0 0 384.00023 384.00034"
   xml:space="preserve"
   class="st2"
   version="1.1"
   id="svg152"
   sodipodi:docname="demo.svg"
   style="font-size:12px;overflow:visible;color-interpolation-filters:sRGB;fill:none;fill-rule:evenodd;stroke-linecap:square;stroke-miterlimit:3"
   inkscape:version="0.92.4 (5da689c313, 2019-01-14)"><metadata
   id="metadata158"><rdf:RDF><cc:Work
       rdf:about=""><dc:format>image/svg+xml</dc:format><dc:type
         rdf:resource="http://purl.org/dc/dcmitype/StillImage" /><dc:title></dc:title></cc:Work></rdf:RDF></metadata><defs
   id="defs156" /><sodipodi:namedview
   pagecolor="#ffffff"
   bordercolor="#666666"
   borderopacity="1"
   objecttolerance="10"
   gridtolerance="10"
   guidetolerance="10"
   inkscape:pageopacity="0"
   inkscape:pageshadow="2"
   inkscape:window-width="3840"
   inkscape:window-height="2081"
   id="namedview154"
   showgrid="false"
   units="px"
   inkscape:zoom="0.63967789"
   inkscape:cx="255.99985"
   inkscape:cy="184.46784"
   inkscape:window-x="-9"
   inkscape:window-y="-9"
   inkscape:window-maximized="1"
   inkscape:current-layer="svg152" />
	<v:documentProperties
   v:langID="2052"
   v:viewMarkup="false" />

	<style
   type="text/css"
   id="style138">
	<![CDATA[
		.st1 {fill:#eeb211;stroke:none;stroke-linecap:butt;stroke-width:8}
		.st2 {fill:none;fill-rule:evenodd;font-size:12px;overflow:visible;stroke-linecap:square;stroke-miterlimit:3}
	]]>
	</style>

	<g
   v:mID="0"
   v:index="1"
   v:groupContext="foregroundPage"
   id="g150"
   transform="translate(0.2822425,53.650142)">
		<title
   id="title140">页-1</title>
		<v:pageProperties
   v:drawingScale="0.0393701"
   v:pageScale="0.0393701"
   v:drawingUnits="24"
   v:shadowOffsetX="9"
   v:shadowOffsetY="-9" />
		<g
   id="group99-1"
   transform="translate(0,-5.21689)"
   v:mID="99"
   v:groupContext="group">
			<title
   id="title142">工作表.99</title>
			<g
   id="shape127-2"
   v:mID="127"
   v:groupContext="shape"
   transform="translate(77.0079,-2.78311)">
				<title
   id="title144">工作表.127</title>
				<path
   d="M 184.56,78.07 C 184.56,40.1 152.95,16 114.71,16 76.47,16 44.86,40.1 44.86,78.07 v 11.69 h 139.7 z m -95.59,0 c -8.82,0 -16.17,-7.3 -16.17,-16.06 0,-8.76 7.35,-16.07 16.17,-16.07 8.82,0 16.18,7.31 16.18,16.07 0,8.76 -6.62,16.06 -16.18,16.06 z m 51.48,0 c -8.83,0 -16.18,-7.3 -16.18,-16.06 0,-8.76 7.35,-16.07 16.18,-16.07 8.82,0 16.17,7.31 16.17,16.07 0,8.76 -7.35,16.06 -16.17,16.06 z M 0,115.31 h 16.91 v 61.35 H 0 Z m 23.53,62.08 c 0,23.37 8.82,42.36 23.53,56.23 v 43.08 h 46.33 v -20.45 c 6.61,1.46 13.96,2.19 21.32,2.19 7.35,0 14.7,-0.74 21.32,-2.19 v 20.45 h 46.32 v -42.36 c 14.71,-13.87 23.53,-32.86 23.53,-56.23 v -77.4 H 23.53 Z m 114.71,16.58 38.97,-17.53 -38.97,-17.53 v -11.68 l 50.74,24.1 v 10.23 l -50.73,24.1 v -11.69 z m -16.91,-57.69 h 10.28 l -22.79,79.59 H 98.53 Z M 40.44,171.33 91.18,146.5 v 12.41 l -38.24,17.54 38.24,17.53 v 11.68 L 40.44,180.83 Z m 188.98,-56.02 v 61.35 H 212.5 v -61.35 z"
   class="st1"
   id="path146"
   inkscape:connector-curvature="0"
   style="fill:#eeb211;stroke:none;stroke-width:8;stroke-linecap:butt" />
			</g>
		</g>
	</g>
</svg>

<?xml version="1.0" encoding="UTF-8" standalone="no"?>
<!DOCTYPE svg PUBLIC "-//W3C//DTD SVG 1.1//EN" "http://www.w3.org/Graphics/SVG/1.1/DTD/svg11.dtd">
<!-- 由 Microsoft Visio, SVG Export 生成 demo.svg 页-1 -->
<svg xmlns="http://www.w3.org/2000/svg" xmlns:xlink="http://www.w3.org/1999/xlink" xmlns:ev="http://www.w3.org/2001/xml-events"
		xmlns:v="http://schemas.microsoft.com/visio/2003/SVGExtensions/" width="5.33333in" height="3.84308in"
		viewBox="0 0 384 276.702" xml:space="preserve" color-interpolation-filters="sRGB" class="st2">
	<v:documentProperties v:langID="2052" v:viewMarkup="false"/>

	<style type="text/css">
	<![CDATA[
		.st1 {fill:#eeb211;stroke:none;stroke-linecap:butt;stroke-width:8}
		.st2 {fill:none;fill-rule:evenodd;font-size:12px;overflow:visible;stroke-linecap:square;stroke-miterlimit:3}
	]]>
	</style>

	<g v:mID="0" v:index="1" v:groupContext="foregroundPage">
		<title>页-1</title>
		<v:pageProperties v:drawingScale="0.0393701" v:pageScale="0.0393701" v:drawingUnits="24" v:shadowOffsetX="9"
				v:shadowOffsetY="-9"/>
		<g id="group99-1" transform="translate(-6.39488E-14,-5.21689)" v:mID="99" v:groupContext="group">
			<title>工作表.99</title>
			<g id="shape127-2" v:mID="127" v:groupContext="shape" transform="translate(77.0079,-2.78311)">
				<title>工作表.127</title>
				<path d="M184.56 78.07 C184.56 40.1 152.95 16 114.71 16 C76.47 16 44.86 40.1 44.86 78.07 L44.86 89.76 L184.56 89.76
							 L184.56 78.07 ZM88.97 78.07 C80.15 78.07 72.8 70.77 72.8 62.01 C72.8 53.25 80.15 45.94 88.97 45.94 C97.79
							 45.94 105.15 53.25 105.15 62.01 C105.15 70.77 98.53 78.07 88.97 78.07 ZM140.45 78.07 C131.62 78.07 124.27
							 70.77 124.27 62.01 C124.27 53.25 131.62 45.94 140.45 45.94 C149.27 45.94 156.62 53.25 156.62 62.01 C156.62
							 70.77 149.27 78.07 140.45 78.07 ZM0 115.31 L16.91 115.31 L16.91 176.66 L0 176.66 L0 115.31 ZM23.53 177.39
							 C23.53 200.76 32.35 219.75 47.06 233.62 L47.06 276.7 L93.39 276.7 L93.39 256.25 C100 257.71 107.35 258.44
							 114.71 258.44 C122.06 258.44 129.41 257.7 136.03 256.25 L136.03 276.7 L182.35 276.7 L182.35 234.34 C197.06
							 220.47 205.88 201.48 205.88 178.11 L205.88 100.71 L23.53 100.71 L23.53 177.39 ZM138.24 193.97 L177.21
							 176.44 L138.24 158.91 L138.24 147.23 L188.98 171.33 L188.98 181.56 L138.25 205.66 L138.25 193.97 L138.24
							 193.97 ZM121.33 136.28 L131.61 136.28 L108.82 215.87 L98.53 215.87 L121.33 136.28 ZM40.44 171.33 L91.18
							 146.5 L91.18 158.91 L52.94 176.45 L91.18 193.98 L91.18 205.66 L40.44 180.83 L40.44 171.33 ZM229.42 115.31
							 L229.42 176.66 L212.5 176.66 L212.5 115.31 L229.42 115.31 Z" class="st1"/>
			</g>
		</g>
	</g>
</svg>
